public/logos/PS.svg

<?xml version="1.0" encoding="UTF-8"?>
<svg xmlns="http://www.w3.org/2000/svg" xmlns:xlink="http://www.w3.org/1999/xlink" width="176pt" height="47.61pt" viewBox="0 0 176 47.61" version="1.1">
<defs>
<clipPath id="clip1">
  <path d="M 0 0 L 48 0 L 48 47.609375 L 0 47.609375 Z M 0 0 "/>
</clipPath>
</defs>
<g id="surface1">
<g clip-path="url(#clip1)" clip-rule="nonzero">
<path style=" stroke:none;fill-rule:nonzero;fill:rgb(14.094543%,23.867798%,46.447754%);fill-opacity:1;" d="M 40.40625 39.378906 L 40.382812 34.839844 C 40.382812 34.761719 40.421875 34.761719 40.421875 34.761719 C 40.382812 34.761719 40.382812 34.726562 40.382812 34.726562 L 40.382812 34.695312 C 40.128906 34.292969 39.882812 33.90625 39.59375 33.507812 C 35.910156 28.21875 31.074219 23.761719 25.421875 20.5625 L 39.5625 20.535156 L 46.320312 20.511719 C 46.464844 21.601562 46.535156 22.644531 46.535156 23.761719 C 46.5625 29.773438 44.238281 35.261719 40.40625 39.378906 Z M 39.613281 40.175781 C 35.550781 44.117188 29.988281 46.578125 23.875 46.601562 C 11.289062 46.640625 1.089844 36.445312 1.042969 23.878906 C 1.023438 11.289062 11.171875 1.070312 23.765625 1.042969 C 29.871094 1.015625 35.449219 3.421875 39.527344 7.378906 C 42.007812 9.714844 43.925781 12.625 45.15625 15.898438 L 39.554688 15.90625 L 13.40625 15.988281 L 13.414062 20.59375 C 15.824219 21.136719 18.207031 21.882812 20.472656 22.882812 C 16.296875 21.746094 11.910156 21.285156 6.941406 21.300781 L 6.769531 21.300781 L 6.769531 27.214844 L 8.140625 25.832031 C 20.40625 26.097656 31.492188 31.1875 39.601562 39.265625 C 39.78125 39.417969 39.9375 39.554688 40.078125 39.703125 C 39.9375 39.890625 39.789062 40.027344 39.613281 40.175781 Z M 23.726562 -0.00390625 C 10.601562 0.0234375 -0.0234375 10.722656 0 23.839844 C 0.046875 36.996094 10.710938 47.644531 23.832031 47.609375 C 36.964844 47.578125 47.582031 36.867188 47.550781 23.71875 C 47.511719 10.59375 36.839844 -0.046875 23.726562 -0.00390625 "/>
</g>
<path style=" stroke:none;fill-rule:nonzero;fill:rgb(14.094543%,23.867798%,46.447754%);fill-opacity:1;" d="M 132.070312 10.660156 L 138.074219 10.714844 L 138.140625 34.222656 C 136.085938 36.566406 132.109375 38.683594 127.25 38.597656 C 120.824219 38.488281 115.625 35.921875 115.625 27.324219 L 115.5625 10.734375 L 121.570312 10.714844 L 121.589844 26.765625 C 121.632812 32.019531 123.445312 33.332031 127.664062 33.332031 C 129.269531 33.332031 131.308594 32.710938 132.125 31.1875 L 132.070312 10.660156 "/>
<path style=" stroke:none;fill-rule:nonzero;fill:rgb(14.094543%,23.867798%,46.447754%);fill-opacity:1;" d="M 143.410156 37.839844 L 149.40625 37.839844 L 149.40625 10.773438 L 143.410156 10.773438 Z M 161.246094 28.378906 L 161.675781 26.925781 C 162.101562 25.566406 162.453125 24.402344 163.109375 21.917969 C 163.414062 20.679688 164.003906 18.386719 164.390625 16.753906 C 164.894531 19.351562 165.125 20.015625 165.480469 21.492188 C 165.789062 22.847656 166.105469 24.207031 166.953125 26.925781 L 168.066406 30.722656 C 165.730469 29.367188 163.328125 28.75 161.246094 28.378906 M 167.492188 10.773438 L 161.636719 10.773438 L 152.773438 37.839844 L 158.449219 37.839844 L 159.933594 32.839844 C 161.996094 33.035156 166.320312 33.546875 170.140625 37.714844 L 170.175781 37.839844 L 176 37.839844 L 167.492188 10.773438 "/>
<path style=" stroke:none;fill-rule:nonzero;fill:rgb(14.094543%,23.867798%,46.447754%);fill-opacity:1;" d="M 75.132812 10.660156 L 74.867188 12.527344 C 74.660156 13.988281 73.410156 15.074219 71.9375 15.074219 L 65.875 15.074219 L 65.875 21.285156 L 72.789062 21.285156 L 72.789062 22.996094 C 72.789062 24.507812 71.5625 25.738281 70.046875 25.738281 L 65.875 25.738281 L 65.875 37.808594 L 60.40625 37.808594 L 60.40625 10.660156 L 75.132812 10.660156 "/>
<path style=" stroke:none;fill-rule:nonzero;fill:rgb(14.094543%,23.867798%,46.447754%);fill-opacity:1;" d="M 93.179688 33.277344 L 92.75 35.277344 C 92.429688 36.753906 91.125 37.808594 89.613281 37.808594 L 77.867188 37.808594 L 77.867188 10.660156 L 83.453125 10.660156 L 83.453125 33.277344 L 93.179688 33.277344 "/>
<path style=" stroke:none;fill-rule:nonzero;fill:rgb(14.094543%,23.867798%,46.447754%);fill-opacity:1;" d="M 112.089844 10.660156 L 103.414062 26.636719 L 103.414062 36.183594 C 103.414062 37.082031 102.6875 37.808594 101.792969 37.808594 L 99.234375 37.808594 C 98.394531 37.808594 97.710938 37.125 97.710938 36.285156 L 97.710938 26.636719 L 89.441406 10.972656 C 89.363281 10.832031 89.46875 10.660156 89.628906 10.660156 L 95.835938 10.660156 L 99.3125 18.082031 C 99.886719 19.277344 100.34375 20.4375 100.679688 21.558594 C 101.175781 20.332031 101.65625 19.199219 102.125 18.160156 L 105.640625 10.660156 L 112.089844 10.660156 "/>
</g>
</svg>

<svg xmlns="http://www.w3.org/2000/svg" width="176pt" height="63.48" viewBox="0 0 176 47.61"><defs><clipPath id="a"><path d="M0 0h48v47.61H0Zm0 0"/></clipPath></defs><g clip-path="url(#a)"><path d="m40.406 39.379-.023-4.54c0-.077.039-.077.039-.077-.04 0-.04-.035-.04-.035v-.032c-.253-.402-.5-.789-.788-1.187-3.684-5.29-8.52-9.746-14.172-12.946l14.14-.027 6.758-.023c.145 1.09.215 2.133.215 3.25.028 6.011-2.297 11.5-6.129 15.617m-.793.797a22.7 22.7 0 0 1-15.738 6.426C11.289 46.64 1.09 36.445 1.043 23.879 1.023 11.289 11.172 1.07 23.766 1.043a22.43 22.43 0 0 1 15.761 6.336c2.48 2.336 4.399 5.246 5.63 8.52l-5.602.007-26.149.082.008 4.606c2.41.543 4.793 1.289 7.059 2.289-4.176-1.137-8.563-1.598-13.532-1.582H6.77v5.914l1.37-1.383c12.266.266 23.352 5.355 31.462 13.434.18.152.336.289.476.437-.14.188-.289.324-.465.473M23.727-.004C10.602.023-.023 10.723 0 23.84c.047 13.156 10.71 23.805 23.832 23.77 13.133-.032 23.75-10.743 23.719-23.891C47.51 10.594 36.84-.047 23.727-.004" style="stroke:none;fill-rule:nonzero;fill:#243d76;fill-opacity:1"/></g><path d="m132.07 10.66 6.004.055.067 23.508c-2.055 2.343-6.032 4.46-10.891 4.375-6.426-.11-11.625-2.676-11.625-11.274l-.062-16.59 6.007-.02.02 16.052c.043 5.254 1.855 6.566 6.074 6.566 1.606 0 3.645-.621 4.461-2.145zM143.41 37.84h5.996V10.773h-5.996Zm17.836-9.461.43-1.453c.426-1.36.777-2.524 1.433-5.008.305-1.238.895-3.531 1.282-5.164.504 2.598.734 3.262 1.09 4.738.308 1.356.624 2.715 1.472 5.434l1.113 3.797c-2.336-1.356-4.738-1.973-6.82-2.344m6.246-17.606h-5.855l-8.864 27.067h5.676l1.485-5c2.062.195 6.386.707 10.207 4.875l.035.125H176zM75.133 10.66l-.266 1.867a2.96 2.96 0 0 1-2.93 2.547h-6.062v6.211h6.914v1.711a2.743 2.743 0 0 1-2.742 2.742h-4.172v12.07h-5.469V10.66zM93.18 33.277l-.43 2a3.21 3.21 0 0 1-3.137 2.532H77.867V10.66h5.586v22.617zM112.09 10.66l-8.676 15.977v9.547c0 .898-.727 1.625-1.621 1.625h-2.559c-.84 0-1.523-.684-1.523-1.524v-9.648l-8.27-15.664a.212.212 0 0 1 .188-.313h6.207l3.477 7.422a24 24 0 0 1 1.367 3.477 94 94 0 0 1 1.445-3.399l3.516-7.5z" style="stroke:none;fill-rule:nonzero;fill:#243d76;fill-opacity:1"/></svg>
